src/icons/svgs/16/sort-alt.svg

<svg width="16" height="16" viewBox="0 0 16 16" fill="none" xmlns="http://www.w3.org/2000/svg">
<path d="M7.46952 1.20926C7.61576 1.06975 7.80775 1 7.99965 1C8.19183 1 8.384 1.0692 8.53048 1.20871L12.2803 4.78013C12.5732 5.05915 12.5732 5.51116 12.2803 5.79018C11.9873 6.0692 11.5127 6.0692 11.2198 5.79018L7.99965 2.72321L4.78021 5.79074C4.48725 6.06975 4.01267 6.06975 3.71972 5.79074C3.42676 5.51172 3.42676 5.05971 3.71972 4.78069L7.46952 1.20926Z" fill="black"/>
<path d="M7.46952 14.7907C7.61576 14.9302 7.80775 15 7.99965 15C8.19183 15 8.384 14.9308 8.53048 14.7913L12.2803 11.2199C12.5732 10.9408 12.5732 10.4888 12.2803 10.2098C11.9873 9.9308 11.5127 9.9308 11.2198 10.2098L7.99965 13.2768L4.78021 10.2093C4.48725 9.93025 4.01267 9.93025 3.71972 10.2093C3.42676 10.4883 3.42676 10.9403 3.71972 11.2193L7.46952 14.7907Z" fill="black"/>
</svg>

<svg width="16" height="16" viewBox="0 0 16 16" xmlns="http://www.w3.org/2000/svg">
    <path d="M7.47 1.21A.766.766 0 0 1 8 1c.192 0 .384.07.53.209l3.75 3.571a.69.69 0 0 1 0 1.01.776.776 0 0 1-1.06 0L8 2.723 4.78 5.791a.776.776 0 0 1-1.06 0 .69.69 0 0 1 0-1.01l3.75-3.572Zm0 13.58c.146.14.338.21.53.21s.384-.07.53-.209l3.75-3.571a.69.69 0 0 0 0-1.01.776.776 0 0 0-1.06 0L8 13.277l-3.22-3.068a.776.776 0 0 0-1.06 0 .69.69 0 0 0 0 1.01l3.75 3.572Z"/>
</svg>
